svgs/thin/arrow-down-to-line.svg

<svg xmlns="http://www.w3.org/2000/svg" viewBox="0 0 384 512"><!--! Font Awesome Pro 6.3.0 by @fontawesome - https://fontawesome.com License - https://fontawesome.com/license (Commercial License) Copyright 2023 Fonticons, Inc. --><path d="M186.3 381.7c3.125 3.125 8.188 3.125 11.31 0l152-152C351.2 228.1 352 226.1 352 224s-.7813-4.094-2.344-5.656c-3.125-3.125-8.188-3.125-11.31 0L200 356.7V40C200 35.59 196.4 32 192 32S184 35.59 184 40v316.7L45.66 218.3c-3.125-3.125-8.188-3.125-11.31 0s-3.125 8.188 0 11.31L186.3 381.7zM8 480h368c4.418 0 8-3.582 8-8s-3.582-8-8-8H8C3.582 464 0 467.6 0 472S3.582 480 8 480z"/></svg>

<svg xmlns="http://www.w3.org/2000/svg" viewBox="0 0 384 512"><!-- Font Awesome Pro 6.0.0-alpha2 by @fontawesome - https://fontawesome.com License - https://fontawesome.com/license (Commercial License) --><path d="M186.344 381.656C189.469 384.781 194.531 384.781 197.656 381.656L349.656 229.656C351.219 228.094 352 226.062 352 224S351.219 219.906 349.656 218.344C346.531 215.219 341.469 215.219 338.344 218.344L200 356.688V40C200 35.594 196.422 32 192 32S184 35.594 184 40V356.688L45.656 218.344C42.531 215.219 37.469 215.219 34.344 218.344S31.219 226.531 34.344 229.656L186.344 381.656ZM8 480H376C380.418 480 384 476.418 384 472S380.418 464 376 464H8C3.582 464 0 467.582 0 472S3.582 480 8 480Z"/></svg>
